X:1
T:Title
%%score { ( 1 3 ) | 2 }
L:1/8
M:6/8
K:G
V:1 treble nm="Grand Piano"
V:3 treble 
V:2 bass 
V:1
 z3 z2[Q:1/4=100] D | G2 G [FA][EG][FA] | B2 e d2 B | d2 d BAG |[M:5/8] [FA]-[FA]- [FA]3 | %5
[M:1/8] D |[M:3/4] G2 G[FA] [EG][FA] | B2 e d2 B | [Fd]3 [DGB] [B,DG][CDA] | %9
[M:5/8] [B,DG]-[B,DG]- [B,DG]3 |[M:1/8] B |[M:3/4] d3 d Bd | G2 E D2 G | B3 B AG |[M:5/8] d-d- d3 | %15
[M:1/8] [Ad] |[M:3/4] e2 ee dB | d2 d G2 B | [Fd]3 [DGB] [B,DG][CDA] | %19
[M:5/8] [B,DG]-[B,DG]- [B,DG]3 |] %20
V:2
 z3 z2 [G,B,] | [G,B,D]2 [G,B,] [D,D][D,D][D,D] | [G,DG]2 [G,CG] [G,B,G]2 [G,DG] | %3
 [G,B,G]2 [G,B,G] [G,DG][G,CF][K:bass][G,B,] |[M:5/8] [D,D]-[D,D]- [D,D]3 |[M:1/8] [G,B,] | %6
[M:3/4] [G,B,D]2 [G,B,][D,D] [D,D][D,D] | [G,DG]2 [G,CG] [G,B,G]2[K:bass] [G,D] | [D,A,]3 D, D,D, | %9
[M:5/8] G,,-G,,- G,,3 |[M:1/8][K:treble] [G,DG] |[M:3/4] [G,B,G]3 [G,B,G] [G,DG][G,B,G] | %12
 [G,B,D]2 [G,C] [G,B,]2 [G,B,] | [G,D]3 [G,D] [F,A,D][E,B,E] |[M:5/8] [D,D]2 [G,B,] [D,A,]2 | %15
[M:1/8] [D,C] |[M:3/4][K:treble] [G,CG]2 [G,CG][G,CG] [G,B,G][G,DG] | %17
 [G,B,G]2 [G,B,G][K:bass] [G,B,D]2 [G,D] | [D,A,]3 D, D,D, |[M:5/8] G,,-G,,- G,,3 |] %20
V:3
 x6 | x6 | x6 | x6 |[M:5/8] x5 |[M:1/8] x |[M:3/4] x6 | x6 | x6 |[M:5/8] x5 |[M:1/8] x | %11
[M:3/4] x6 | x6 | x6 |[M:5/8] F2 G F2 |[M:1/8] x |[M:3/4] x6 | x6 | x6 |[M:5/8] x5 |] %20

